X: 22
T: Castle Kelly
Z: Fernando Durbán Galnares
S: https://thesession.org/tunes/21#setting46199
R: reel
M: 4/4
L: 1/8
K: Ador
|:G|"Am"A2 cA ABcA|"G"GEEF G2 EG|"Am"ABcA "G"GAcd|"Em"egdB "Am"cAAG|
"Am"A2 cA ABcA|"G"GEEF G2 EG|"Am"ABcA "G"GAcd|"Em"egdB "Am"cAA:|
|:g|"Am"agec "G"d2ed|"Am"cAGE "Em"G2 eg|"Am"agec "G"d2 cd|"Em"eaag "Am" a2 eg|
"Am"agec "G"d2 ed|"Am"cAGE "Em"G2 EG|"Am"ABcA "G"GAcd|"Em"egdB "Am"cAA:|

